X:32
T:The Newrigged Ship
R:reel
O:Shetland
M:C
L:1/8
K:Amix
   eg | "Am/A" a2  ab ageg | a2 ab              agef | "G" g2 g2      fgag | "D" f2  d2 d2 :|
|: eg | "A" cAcA "G" B2 ed | "A" cAcA    "(E)" E2 ed | "A" cAcA  "G" B2 ed | "A" c2  A2 A2 :|
[K:Ador]
|: AB | "Am" cdec "G" BcdB | "Am" ABAF "(EM)"  GF E2 | "Am" cdec  "G" BcdB | "Am" c2 A2 A2 :|
